X: 35268
T: Rose In The Garden, The
R: reel
M: 4/4
K: Dmajor
EFAc dc d/c/B|c/d/c cA B2 A/^G/F|EFAc d2 fd|eaec BA A/^G/F|
Ec^Ac d2 db|c2 cA B2 AF|EFAc dfAf|eA^GB A2:|
|:c2 ce d2 fd|ceec BA ^G/A/B|ceec d2 fd|ec B/A/^G FAGA|
ceec dffd|ce e/e/c BA^GF|cef^g abaf|ecBA FA:|

